X:1
T:Si iay eu tousiours
T:Pierre Certon
T:Source : Livre X de 28 chansons nouvelles à 4 parties---Paris---P.Attaingnant---1541. Editor : André Vierendeels (21/05/18) Notes : Original clefs : C1, C3, C3, F3 Original note values have been halved Editorial accidentals above the staff  
T:Si iay eu tousiours
T:©
T:©
T:©
C:Pierre Certon
Z:©
%%score [ 1 2 3 4 ]
L:1/8
Q:1/4=120
M:2/2
K:F
V:1 treble nm="Soprano" snm="S"
V:2 treble nm="Alto" snm="A"
V:3 treble-8 nm="Tenor" snm="T"
V:4 bass nm="Bass" snm="B"
V:1
 A4 A2 G2 | B4 A4- | A2 GF G2 A2 | B3 A G2 F2- | F2 E2 F4 | z4 z2 F2 | A2 G2 A2 c2 | c2 B2 c2 CD | %8
w: Si iay eu|tous- iours|_ _ _ _ mon||* vou- loir,|de|met- tre tout à|mon cha- loir, à _|
w: Par la ver-|tu or|_ _ _ _ te|suf- * * fi-|* * se,|et|ces- se de plus|te dou- loir, te _|
 EF G4 F2- | F2 E2 F4 :| z2 c2 c2 c2 | c2 d3 c c2- | c2 B2 c2 G2 | G2 G2 A2 A2 | c2 c2 B4 | %15
w: _ _ _ mon|_ cha- loir,|car tu ne|pour- roys _ myeulx|_ va- loir, mes-|pri- sant ce que|chas- cun pri-|
w: _ _ _ dou-|* * loir,||||||
 A4 G4- | G2 F2 G4 | G4 z4 | c8 | c6 c2 | d3 d d2 d2 | c4 A4- | A2 A2 c2 c2 | B6 A2 | %24
w: ||se,|O|sot- t'et|maul- vai- s'en- tre-|pri- se,|_ de me cuy-|der ex|
w: |||||||||
"^b" G2 F2 E4 |: z2 F2 F2 F2 | G6 G2 | B2 B2 A2 c2- | cB A2 G4 | z2 A2 A2 A2 | G2 F2 B4 | %31
w: ter- mi- ner,|la gra- ce|par ver-|tu con- qui- *|* * * se,|est mal ay-|sé- e'à ruy-|
w: |||||||
 A2 G3 F F2- |"^-natural" F2 E2 F4- | F8 :| %34
w: |* * ner.|_|
w: |||
V:2
 F4 F2 E2 | G4 C4- | C4 C4 | F4 _E2 C2 | C4 C4 | z2 C2 D2 D2 | F2 E2 F4 | G4 E4 | C2 D4 B,2 | %9
w: Si iay eu|tous- iours|_ mon|vou- * *|* loir,|de met- tre|tout à mon|cha- *||
w: Par la ver-|tu or|_ te|suf- * *|fi- se,|et ces- se|de plus te|dou- *||
 C4 A,4 :| z2 A2 A2 A2 | G2 A2 G2 F2 | G4 E2 E2 | E2 E2 F2 F2 | E2 F2 G2 G,2 | A,3 B, C2 G,2 | %16
w: * loir,|car tu ne|pour- roys myeulx _|va- loir, mes-|pri- sant ce que|chas- cun pri- *||
w: * loir,|||||||
 B,2 C2 D4 | E4 z4 | G8 | A6 A2 | B3 B B2 B2 | G4 F4- | F2 F2 A2 A2 | G6 F2 | _E2 C2 C4 |: %25
w: |se,|O|sot- t'et|maul- vai- s'en- tre-|ri- se,|_ de me cuy-|der ex-|ter- mi- ner,|
w: |||||||||
 z2 D2 D2 D2 | E6 E2 | F2 F2 F2 A2- | AG F4 E2 | F4 z2 C2 | C2 D2 F4- |"^b" F2 D2 E2 C2 | C4 A,4- | %33
w: la gra- ce|par ver-|tu con- qui- *||se, est|mal- ay- sé-|* e'à ruy- *|* ner.|
w: ||||||||
 A,8 :| %34
w: _|
w: |
V:3
 F4 c2 c2 | d4 f4- | f4 e4 | d3 c B2 A2 | G4 F2 F2 | A2 G2 A2 B2 | c8 | d4 c3 B | GA B3 AGF | %9
w: Si iay eu|tous- iours|_ mon|vou- * * *|* loir, de|met- tre tout à|mon|cha- * *||
w: Par la ver-|tu or|_ te|suf- * * *|fi- se, et|ces- se de plus|te|dou- * *||
 G4 F4 :| z2 f2 f2 f2 | e2 f2 e2 dc | d4 c4- | c4 z2 c2 | c2 c2 d2 d2 | f2 f2 e4 | %16
w: * loir,|car tu ne|pour- roys myeulx _ _|va- loir,|_ mes-|pri- sant ce que|chas- cun pri-|
w: * loir,|||||||
"^-natural" d2 c3 B/A/ B2 | c4 z4 | e8 | f6 f2 | f3 f f2 f2 | e4 c2 c2 | c2 c2 f3 e | dc d4 d2 | %24
w: |se,|O|sot- t'et|maul- vai- s'en- tre-|pri- se, de|me cuy- der _|_ _ _ ex-|
w: ||||||||
 B2 A2 G4 |: z2 B2 B2 A2 | c6 c2 | d2 d2 c4 | F2 c2 c2 c2 | B2 A2 FGAB | cABc d4 | c2 B4 A2 | %32
w: ter- mi- ner,|la gra- ce|par ver-|tu con- qui-|se, est mal ay-|sé e'à ruy- * * *|||
w: ||||||||
 G4 F4- | F8 :| %34
w: * ner.|_|
w: ||
V:4
 F,4 F,2 C,2 | G,4 F,4- | F,2 E,D, C,4 | B,,2 D,2 _E,2 F,2 | C,4 z2 F,2 | F,2 E,2 D,2 B,,2 | %6
w: Si iay eu|tous- iours|_ _ _ _|* mon _ vou-|loir, de|met- tre tout à|
w: Par la vertu|or te|_ _ _ _|* suf- fi- *|se, et|ces- se de plus|
 F,2 C,2 F,2 A,2 | G,4 C,4- | C,2 B,,2 D,4 | C,4 F,4 :| z2 F,2 A,3 B, | C2 F,2 G,2 A,2 | %12
w: mon _ _ _|cha- *||* loir,|car tu ne|pour- roys myeulx va-|
w: te _ _ _|dou- *||* loir,|||
 G,4 z2 C,2 | C,2 C,2 F,2 F,2 | A,2 A,2 G,3 F, | D,2 F,2 C,D,E,F, | G,2 A,2 G,4 | %17
w: loir, mes-|pri- sant ce que|chas- cun pri- *|||
w: |||||
"^-natural" C,4 z4 | C8 | F,6 F,2 | B,3 B, B,2 B,2 | C4 F,4 | z2 F,2 F,2 F,2 | G,6 D,2 | %24
w: se,|O|sot- t'et|maul- vai- s'en- tre-|pri- se,|de me cuy-|der ex-|
w: |||||||
 _E,2 F,2 C,4 |: z2 B,,2 D,2 D,2 | C,6 C,2 | B,,2 B,,2 F,4- | F,4 C,4 | z2 F,2 F,2 F,2 | %30
w: ter- mi- ner,|la gra- ce|par ver-|tu con- qui-|* se,|est mal ay-|
w: ||||||
 E,2 D,2 B,,C,D,E, |"^b" F,2 G,2 E,2 F,2 | C,4 F,4- | F,8 :| %34
w: sé- e'à ruy- * * *||* ner.|_|
w: ||||

